svgs/1F476-1F3FB.svg

<svg xmlns="http://www.w3.org/2000/svg" xmlns:xlink="http://www.w3.org/1999/xlink" preserveAspectRatio="none" viewBox="0 0 72 72"><defs><path id="a" fill="#DBA689" d="M111.4 66.55h-4.05V89.3q5.35 0 8.85-2.7 4-3.15 4-9 0-5.95-4.4-9.1-1.35-.95-3-1.55l-1.4-.4z"/><path id="b" fill="#DBA689" d="M20.6 66.55h-4.05q-.55.1-1.35.4-1.65.6-3.05 1.55-4.4 3.15-4.4 9.1 0 5.85 4.05 9 3.45 2.7 8.8 2.7V66.55z"/><path id="c" fill="#FADCBC" d="M58.5 18.3Q54.55 12.5 49 10q-5.15-2.4-13-2.4T23 10q-5.55 2.5-9.5 8.3-2.85 4.25-3.8 10.9-.85 6.2.1 13.6.9 7.1 2.8 11.35 2.1 4.7 6.3 8.35 6.8 5.95 16.7 5.95h.75q9.95 0 16.7-5.95 4.25-3.65 6.3-8.35 1.9-4.25 2.8-11.35.95-7.4.1-13.6-.9-6.65-3.75-10.9z"/><path id="d" fill="#DBA689" d="M39.4 51.35q.1-.25 0-.45-.15-.25-.45-.15-1.55.45-2.95.45-1.45 0-2.95-.45-.3-.1-.45.15-.15.2 0 .45.3.55 1.15 1.1 1.05.6 2.2.6 1.2 0 2.25-.6.85-.55 1.2-1.1z"/><path id="e" fill="#513F35" d="M74.3 100.05q-.25-.6-1.05-.6h-18.5q-.8 0-1.05.6t.25 1.5q1 1.75 3.35 3.2 3.05 1.9 6.7 1.9 3.65 0 6.7-1.9 2.35-1.45 3.35-3.2.5-.9.25-1.5z"/><path id="f" fill="#312D2D" d="M75.65 8.5Q68.8 4.35 61.4 5.55q-5.35.9-9.7 4.35-3.65 2.95-4.4 5.55 5.65-1.4 11.9-1.75 4.75-.3 7.95 2.05 3.35 2.45 3.15 6.4-.35 7.65-7.8 8.6-6.6.85-11.1-3.1-.5-.45-1.1-.1-.6.3-.55.95.25 2.5 1.8 4.85 1.75 2.75 4.95 4.75 2.75 1.7 7.2 1.85 4.65.15 8.95-1.6Q83.5 34 83.5 22.05q0-8.85-7.85-13.55z"/><path id="g" fill="#444" d="M40.15 72.35q-1.7 2-1.7 4.85 0 2.9 1.7 4.9 1.65 2 4.05 2 2.35 0 4.05-2 1.65-2.05 1.65-4.9 0-2.85-1.65-4.85-1.7-2.05-4.05-2.05-2.4 0-4.05 2.05z"/><path id="h" fill="#444" d="M87.85 72.35q-1.7-2.05-4.05-2.05-2.4 0-4.05 2.05-1.7 2-1.7 4.85 0 2.85 1.7 4.9 1.65 2 4.05 2 2.35 0 4.05-2 1.65-2 1.65-4.9 0-2.85-1.65-4.85z"/></defs><use transform="rotate(.078) scale(.56247)" xlink:href="#a"/><use transform="rotate(.078) scale(.56247)" xlink:href="#b"/><use xlink:href="#c"/><use xlink:href="#d"/><use transform="scale(.5625)" xlink:href="#e"/><use transform="scale(.5625)" xlink:href="#f"/><use transform="translate(0 .75) scale(.5625)" xlink:href="#g"/><use transform="translate(0 .75) scale(.5625)" xlink:href="#h"/></svg>

<svg xmlns="http://www.w3.org/2000/svg" version="1.1" xmlns:xlink="http://www.w3.org/1999/xlink" preserveAspectRatio="none" x="0px" y="0px" width="72px" height="72px" viewBox="0 0 72 72">
<defs>
<g id="Layer0_0_MEMBER_0_MEMBER_0_MEMBER_0_FILL">
<path fill="#DBA689" stroke="none" d="
M 111.4 66.55
L 107.35 66.55 107.35 89.3
Q 112.7 89.3 116.2 86.6 120.2 83.45 120.2 77.6 120.2 71.65 115.8 68.5 114.45 67.55 112.8 66.95
L 111.4 66.55 Z"/>
</g>

<g id="Layer0_0_MEMBER_0_MEMBER_0_MEMBER_1_FILL">
<path fill="#DBA689" stroke="none" d="
M 20.6 66.55
L 16.55 66.55
Q 16 66.65 15.2 66.95 13.55 67.55 12.15 68.5 7.75 71.65 7.75 77.6 7.75 83.45 11.8 86.6 15.25 89.3 20.6 89.3
L 20.6 66.55 Z"/>
</g>

<g id="Layer0_0_MEMBER_0_MEMBER_1_FILL">
<path fill="#FADCBC" stroke="none" d="
M 58.5 18.3
Q 54.55 12.5 49 10 43.85 7.6 36 7.6 28.15 7.6 23 10 17.45 12.5 13.5 18.3 10.65 22.55 9.7 29.2 8.85 35.4 9.8 42.8 10.7 49.9 12.6 54.15 14.7 58.85 18.9 62.5 25.7 68.45 35.6 68.45
L 36.35 68.45
Q 46.3 68.45 53.05 62.5 57.3 58.85 59.35 54.15 61.25 49.9 62.15 42.8 63.1 35.4 62.25 29.2 61.35 22.55 58.5 18.3 Z"/>
</g>

<g id="Layer0_0_MEMBER_0_MEMBER_2_FILL">
<path fill="#DBA689" stroke="none" d="
M 39.4 51.35
Q 39.5 51.1 39.4 50.9 39.25 50.65 38.95 50.75 37.4 51.2 36 51.2 34.55 51.2 33.05 50.75 32.75 50.65 32.6 50.9 32.45 51.1 32.6 51.35 32.9 51.9 33.75 52.45 34.8 53.05 35.95 53.05 37.15 53.05 38.2 52.45 39.05 51.9 39.4 51.35 Z"/>
</g>

<g id="Layer0_0_MEMBER_0_MEMBER_3_FILL">
<path fill="#513F35" stroke="none" d="
M 74.3 100.05
Q 74.05 99.45 73.25 99.45
L 54.75 99.45
Q 53.95 99.45 53.7 100.05 53.45 100.65 53.95 101.55 54.95 103.3 57.3 104.75 60.35 106.65 64 106.65 67.65 106.65 70.7 104.75 73.05 103.3 74.05 101.55 74.55 100.65 74.3 100.05 Z"/>
</g>

<g id="Layer0_0_MEMBER_0_MEMBER_4_FILL">
<path fill="#312D2D" stroke="none" d="
M 75.65 8.5
Q 68.8 4.35 61.4 5.55 56.05 6.45 51.7 9.9 48.05 12.85 47.3 15.45 52.95 14.05 59.2 13.7 63.95 13.4 67.15 15.75 70.5 18.2 70.3 22.15 69.95 29.8 62.5 30.75 55.9 31.6 51.4 27.65 50.9 27.2 50.3 27.55 49.7 27.85 49.75 28.5 50 31 51.55 33.35 53.3 36.1 56.5 38.1 59.25 39.8 63.7 39.95 68.35 40.1 72.65 38.35 83.5 34 83.5 22.05 83.5 13.2 75.65 8.5 Z"/>
</g>

<g id="Layer0_0_MEMBER_0_MEMBER_5_FILL">
<path fill="#444444" stroke="none" d="
M 40.15 72.35
Q 38.45 74.35 38.45 77.2 38.45 80.1 40.15 82.1 41.8 84.1 44.2 84.1 46.55 84.1 48.25 82.1 49.9 80.05 49.9 77.2 49.9 74.35 48.25 72.35 46.55 70.3 44.2 70.3 41.8 70.3 40.15 72.35 Z"/>
</g>

<g id="Layer0_0_MEMBER_0_MEMBER_6_FILL">
<path fill="#444444" stroke="none" d="
M 87.85 72.35
Q 86.15 70.3 83.8 70.3 81.4 70.3 79.75 72.35 78.05 74.35 78.05 77.2 78.05 80.05 79.75 82.1 81.4 84.1 83.8 84.1 86.15 84.1 87.85 82.1 89.5 80.1 89.5 77.2 89.5 74.35 87.85 72.35 Z"/>
</g>
</defs>

<g id="Layer_1">
<g transform="matrix( 0.562469482421875, 0, 0, 0.562469482421875, 0,0) ">
<use xlink:href="#Layer0_0_MEMBER_0_MEMBER_0_MEMBER_0_FILL"/>
</g>

<g transform="matrix( 0.562469482421875, 0, 0, 0.562469482421875, 0,0) ">
<use xlink:href="#Layer0_0_MEMBER_0_MEMBER_0_MEMBER_1_FILL"/>
</g>

<g transform="matrix( 1, 0, 0, 1, 0,0) ">
<use xlink:href="#Layer0_0_MEMBER_0_MEMBER_1_FILL"/>
</g>

<g transform="matrix( 1, 0, 0, 1, 0,0) ">
<use xlink:href="#Layer0_0_MEMBER_0_MEMBER_2_FILL"/>
</g>

<g transform="matrix( 0.5625, 0, 0, 0.5625, 0,0) ">
<use xlink:href="#Layer0_0_MEMBER_0_MEMBER_3_FILL"/>
</g>

<g transform="matrix( 0.5625, 0, 0, 0.5625, 0,0) ">
<use xlink:href="#Layer0_0_MEMBER_0_MEMBER_4_FILL"/>
</g>

<g transform="matrix( 0.5625, 0, 0, 0.5625, 0,0.75) ">
<use xlink:href="#Layer0_0_MEMBER_0_MEMBER_5_FILL"/>
</g>

<g transform="matrix( 0.5625, 0, 0, 0.5625, 0,0.75) ">
<use xlink:href="#Layer0_0_MEMBER_0_MEMBER_6_FILL"/>
</g>
</g>
</svg>
